check-ins/include.svg

<svg xmlns="http://www.w3.org/2000/svg" viewBox="0 0 16 16"><defs><style>.cls-1{fill:#231f20;fill-rule:evenodd}</style></defs><title>include</title><path class="cls-1" d="M15 0H1a1 1 0 0 0-1 1v14a1 1 0 0 0 1 1h14a1 1 0 0 0 1-1V1a1 1 0 0 0-1-1zM6 5a1 1 0 0 1-1 1H3a1 1 0 0 1-1-1V3a1 1 0 0 1 1-1h2a1 1 0 0 1 1 1zm8 8a1 1 0 0 1-1 1H8a1 1 0 0 1-1-1V8a1 1 0 0 1 1-1h5a1 1 0 0 1 1 1z" id="Layer_1" data-name="Layer 1"/></svg>

<svg xmlns="http://www.w3.org/2000/svg" viewBox="0 0 16 16"><defs><style>.cls-1{fill:#231f20;fill-rule:evenodd;}</style></defs><title>include</title><g id="Layer_1" data-name="Layer 1"><path class="cls-1" d="M15,0H1A1,1,0,0,0,0,1V15a1,1,0,0,0,1,1H15a1,1,0,0,0,1-1V1A1,1,0,0,0,15,0ZM6,5A1,1,0,0,1,5,6H3A1,1,0,0,1,2,5V3A1,1,0,0,1,3,2H5A1,1,0,0,1,6,3Zm8,8a1,1,0,0,1-1,1H8a1,1,0,0,1-1-1V8A1,1,0,0,1,8,7h5a1,1,0,0,1,1,1Z"/></g></svg>
